X: 19508
T: Jacky Tar
R: hornpipe
M: 4/4
K: Eminor
|:Bd|~e2ed egfe|dBBA B2dB|ABde fd (3efg|afed BA (3Bcd|
~e2ed efge|dBBA B2cB|ABBA GBdB|AGE2 E2:|
|:GF|EGBG (3EFG B2|B^ABc BGE^D|DFAB (3ABA FA|d^cBA GFED|
EBBA Bdgd|B2BA BccB|A2BA (3GAB dB|AGE2 E2:|

